X:673
T:Angus Campbell
C:James Scott Skinner
R:reel
H:See also strathspey#1
D:Bothy Band: 1975
Z:id:hn-reel-487
M:C|
K:A
(3EFG|:A2cA EAce|a2ga faec|d2Bd c2Ac|BFBA GEFG|
A2cA EAce|a2ga faec|defd ceaf|1 ecdB A2 (3EFG:|2 ecdB A2 (3efg||
|:a2ea caAd|(3cBA ce aece|b2fb dbBe|dBfB bfdf|
a2ea caAd|(3cBA ce aece|defd ceaf|1 ecdB A2 (3efg:|2 ecdB A2||
